archdroid-icon-theme/Archdroid-ArchBlue/places/scalable/folder-linux-mint.svg

<svg fill="#1793D1" height="48" viewBox="0 0 48 48" width="48" xmlns="http://www.w3.org/2000/svg"><path d="m8 8c-2.21 0-3.980469 1.79-3.980469 4l-.019531 24c0 2.21 1.79 4 4 4h32c2.21 0 4-1.79 4-4v-20c0-2.21-1.79-4-4-4h-16l-4-4zm11 9.070313 9.943359.046875 3.109375.005859c3.72209 0 6.947266 2.816049 6.947266 6.535156v11.341797h-10.693359c-3.719249 0-6.945313-2.819387-6.945313-6.535156l-.003906-4.511719v-1.150391h-2.357422zm1.517578 1.52539v2.691406h.94336c.640588 0 1.412109.601187 1.412109 1.484375l.005859 5.689454c0 2.772569 2.431456 5.019531 5.427735 5.019531h7.398437c.948526 0 1.779297-.600266 1.779297-1.523438v-8.298828c0-2.77257-2.431811-5.019531-5.431641-5.019531h-3.113281v-.007813zm3.814453 1.6875h1.548828v7.9375c0 1.061801.72338 1.886719 1.572266 1.886719l5.277344.021484c1.099724 0 1.955078-.757153 1.955078-1.65625l-.007813-4.214843c0-.273565-.089854-.488257-.285156-.685547-.19594-.197858-.404383-.28711-.673828-.28711-.275055 0-.479415.088754-.675781.28711-.195515.19729-.283203.412054-.283203.685547v3.605468h-1.636719v-3.605468c0-.273565-.089855-.488257-.285156-.685547-.196367-.198356-.400726-.28711-.675782-.28711-.269445 0-.475934.089181-.671875.28711-.195514.19729-.285156.412054-.285156.685547v3.605468h-1.636719v-3.605468c0-.713028.26228-1.347011.763672-1.853516.501676-.50679 1.127348-.767578 1.830078-.767578h.001954c.68952 0 1.28877.257626 1.77539.726562.487828-.469646 1.091446-.726562 1.78125-.726562.70273 0 1.326733.260788 1.828125.767578.501463.506221.763672 1.139778.763672 1.853516l.005859 4.501953c-.077268.753934-.395308 1.423362-.939453 1.982422h-.001953c-.639807.651383-1.433219.988281-2.335937.988281h-5.875c-.718994-.076913-1.358553-.418176-1.890625-.94336-.62255-.620277-.94336-1.387194-.94336-2.261718z" fill="#1793D1"/></svg>

<svg fill="#1793D1" height="48" version="1.1" viewBox="0 0 48 48" width="48" xmlns="http://www.w3.org/2000/svg"><path d="M8 8C5.79 8 4.019531 9.79 4.019531 12L4 36C4 38.21 5.79 40 8 40L40 40C42.21 40 44 38.21 44 36L44 16C44 13.79 42.21 12 40 12L24 12 20 8 8 8zM19 17.070313L28.943359 17.117188 32.052734 17.123047C35.774824 17.123047 39 19.939096 39 23.658203L39 35 28.306641 35C24.587392 35 21.361328 32.180613 21.361328 28.464844L21.357422 23.953125 21.357422 22.802734 19 22.802734 19 17.070313zM20.517578 18.595703L20.517578 21.287109 21.460938 21.287109C22.101526 21.287109 22.873047 21.888296 22.873047 22.771484L22.878906 28.460938C22.878906 31.233507 25.310362 33.480469 28.306641 33.480469L35.705078 33.480469C36.653604 33.480469 37.484375 32.880203 37.484375 31.957031L37.484375 23.658203C37.484375 20.885633 35.052564 18.638672 32.052734 18.638672L28.939453 18.638672 28.939453 18.630859 20.517578 18.595703zM24.332031 20.283203L25.880859 20.283203 25.880859 28.220703C25.880859 29.282504 26.604239 30.107422 27.453125 30.107422L32.730469 30.128906C33.830193 30.128906 34.685547 29.371752999999999 34.685547 28.472656L34.677734 24.257813C34.677734 23.984248 34.58788 23.769556 34.392578 23.572266 34.196638 23.374408 33.988195 23.285156 33.71875 23.285156 33.443695 23.285156 33.239335 23.37391 33.042969 23.572266 32.847454 23.769556 32.759766 23.98432 32.759766 24.257813L32.759766 27.863281 31.123047 27.863281 31.123047 24.257813C31.123047 23.984248 31.033192 23.769556 30.837891 23.572266 30.641524 23.37391 30.437165 23.285156 30.162109 23.285156 29.892664 23.285156 29.686175 23.374337 29.490234 23.572266 29.29472 23.769556 29.205078 23.98432 29.205078 24.257813L29.205078 27.863281 27.568359 27.863281 27.568359 24.257813C27.568359 23.544785 27.830639 22.910802 28.332031 22.404297 28.833707 21.897507 29.459379 21.636719 30.162109 21.636719L30.164063 21.636719C30.853583 21.636719 31.452833 21.894345 31.939453 22.363281 32.427281 21.893635 33.030899 21.636719 33.720703 21.636719 34.423433 21.636719 35.047436 21.897507 35.548828 22.404297 36.050291 22.910518 36.3125 23.544075 36.3125 24.257813L36.318359 28.759766C36.241091 29.5137 35.923051 30.183128 35.378906 30.742188L35.376953 30.742188C34.737146 31.393571 33.943734 31.730469 33.041016 31.730469L27.166016 31.730469C26.447022 31.653556 25.807463 31.312293 25.275391 30.787109 24.652841 30.166832 24.332031 29.399915 24.332031 28.525391L24.332031 20.283203z"/></svg>
